src/components/00-materials/images-raw/Facebook.svg

<svg width="96" height="96" viewBox="0 0 96 96" fill="none" xmlns="http://www.w3.org/2000/svg"><path d="M39 37.33h-9V49h9v33h15V49h10.93L66 37.33H54v-4.86c0-2.78.58-3.89 3.34-3.89H66V14H54.58C43.79 14 39 18.62 39 27.46v9.87z" stroke="#00008F" stroke-width="2" stroke-linecap="round" stroke-linejoin="round"/></svg>

<svg width="96" height="96" viewBox="0 0 96 96" fill="none" xmlns="http://www.w3.org/2000/svg">
<path d="M39 37.33H30V49H39V82H54V49H64.93L66 37.33H54V32.47C54 29.69 54.58 28.58 57.34 28.58H66V14H54.58C43.79 14 39 18.62 39 27.46V37.33Z" stroke="#00008F" stroke-width="2" stroke-linecap="round" stroke-linejoin="round"/>
</svg>
